X:4
T:The Back Road to Enumclaw
R:reel
C:1993 - John Taylor
M:C
L:1/8
Q:1/4=160
K:G
"Em" E2 GE  BEEF | "D" DEFG       ADDF | "Em" E2 GE  BEEG | "D" FDAF "Em" E2    EF :|
"G"  G2 GA  BddB | "C" cdBc   "D" AGFD | "G"  G2 GA  BddB | "D" cAFD "G" G2 "E" E2 |
"A"  A2 AB ^ceec | "D" de^cd "B7" BAGF | "Em" E2 GE  BEEG | "D" FDAF       "Em" E4 |]
